packages/kronos-fna-icons/src/arrow-up.svg

<?xml version="1.0" encoding="UTF-8"?>
<svg width="20px" height="12px" viewBox="0 0 20 12" version="1.1" xmlns="http://www.w3.org/2000/svg" xmlns:xlink="http://www.w3.org/1999/xlink">
    <!-- Generator: Sketch 50.2 (55047) - http://www.bohemiancoding.com/sketch -->
    <title>arrow-up</title>
    <desc>Created with Sketch.</desc>
    <defs></defs>
    <g id="arrow-up" stroke="none" stroke-width="1" fill="none" fill-rule="evenodd">
        <path d="M19.9955107,10.2906641 C19.9955107,10.4546679 19.9147026,10.6417709 19.7957351,10.7641963 L18.7946128,11.7944177 C18.6734007,11.919153 18.5140292,12 18.3344557,12 C18.1750842,12 17.993266,11.9168431 17.8742985,11.7944177 L9.99775533,3.68893167 L2.12121212,11.7944177 C2,11.919153 1.82042649,12 1.66105499,12 C1.5016835,12 1.31986532,11.9168431 1.20089787,11.7944177 L0.199775533,10.7641963 C0.0785634119,10.639461 0,10.4546679 0,10.2906641 C0,10.1266603 0.0808080808,9.93955727 0.199775533,9.81713186 L9.53984287,0.205582291 C9.66105499,0.0808469682 9.84062851,0 10,0 C10.1593715,0 10.3411897,0.0831568816 10.4601571,0.205582291 L19.8002245,9.81713186 C19.9214366,9.94186718 20,10.1266603 20,10.2906641 L19.9955107,10.2906641 Z" id="Shape" fill="#000000" fill-rule="nonzero"></path>
    </g>
</svg>

<svg viewBox="0 0 20 12" xmlns="http://www.w3.org/2000/svg">
    <title>arrow-up</title>
    <path d="M19.996 10.291a.726.726 0 0 1-.2.474l-1.001 1.03a.64.64 0 0 1-.46.206.682.682 0 0 1-.46-.206L9.998 3.69l-7.877 8.105a.677.677 0 0 1-.46.206.682.682 0 0 1-.46-.206L.2 10.765a.72.72 0 0 1-.2-.474c0-.164.081-.351.2-.474L9.54.205A.677.677 0 0 1 10-.001c.159 0 .341.083.46.206l9.34 9.612c.121.125.2.31.2.474h-.004z" />
</svg>
